src/assets/icons/ico-stroke-3step.svg

<svg width="24" height="22" viewBox="0 0 24 22" fill="none" xmlns="http://www.w3.org/2000/svg">
<path d="M17.323 21.0207L17.2811 20.9938C16.7159 20.6304 16.3339 20.1403 16.1663 19.5446C16.0057 18.974 16.0674 18.398 16.2066 17.8847C16.347 17.3671 16.5906 16.8328 16.8696 16.315C16.769 16.4061 16.6713 16.4945 16.5771 16.5793L16.5675 16.5879L16.2935 16.8279C15.0389 17.9279 13.689 19.1115 12.4077 19.8169C11.7112 20.2004 10.9539 20.4906 10.1766 20.5124C9.36071 20.5353 8.59082 20.2595 7.93024 19.6378C7.2826 19.03 6.98548 18.2784 6.98548 17.4596C6.98548 16.6847 7.25012 15.8945 7.61849 15.1348C8.31714 13.6938 9.55359 12.0463 10.8322 10.3425L11.0027 10.1153C11.175 9.87145 11.3726 9.59671 11.5857 9.30045C12.2447 8.3844 13.0517 7.26252 13.7134 6.21213C14.0185 5.72784 14.2772 5.28255 14.4694 4.89937C14.2138 5.03351 13.9293 5.20209 13.6184 5.40455C12.6801 6.01544 11.571 6.88809 10.3917 7.913C8.03623 9.96001 5.47476 12.5491 3.56107 14.6879L3.54398 14.707L3.52586 14.7251C2.72197 15.529 1.52115 15.5209 0.726157 14.9247L0.673675 14.8853L0.627288 14.8389C-0.176608 14.035 -0.168502 12.8342 0.427744 12.0392L0.458139 11.9987L0.492787 11.9617C0.562193 11.8877 0.643297 11.8008 0.73531 11.7022L0.735322 11.7022C1.7661 10.5978 4.16579 8.0266 6.82336 5.64669C8.26955 4.35159 9.81483 3.09232 11.2761 2.15147C12.6957 1.23744 14.1931 0.518066 15.5044 0.518066C16.1637 0.518066 16.6878 0.66727 17.1156 0.902593C17.5162 1.12289 17.7933 1.40032 17.9629 1.57002L17.9778 1.585L17.9867 1.59382L17.9952 1.60287C19.4498 3.13828 19.0088 5.14225 18.1575 6.91826C17.3514 8.60007 15.9917 10.4792 14.6383 12.3494L14.6383 12.3495C14.5315 12.4971 14.4247 12.6447 14.3182 12.7921L14.3143 12.7976L14.2141 12.9341L14.214 12.9342C13.961 13.2791 13.6865 13.6534 13.4076 14.0392C13.5248 13.932 13.6378 13.8287 13.7455 13.7308L13.7471 13.7293C14.9246 12.6639 16.1245 11.5801 17.2569 10.8608C18.3592 10.1608 19.6748 9.6256 20.968 10.1429C21.7325 10.4487 22.4484 11.0943 22.6559 12.0124C22.9562 12.9678 22.7682 13.9278 22.4406 14.7857C22.2955 15.1657 22.1133 15.5499 21.912 15.9324C22.3759 15.9255 22.8796 16.0731 23.2798 16.4473C23.7137 16.7983 23.9436 17.3166 23.9907 17.8112C24.0406 18.3354 23.8944 18.9364 23.44 19.3907L22.4345 20.0966C22.3431 20.1669 22.2467 20.2393 22.1477 20.3109C21.4572 20.8104 20.3689 21.4818 19.1458 21.4818C18.5312 21.4818 17.9355 21.327 17.3675 21.043L17.323 21.0207Z" fill="currentColor"/>
</svg>

<svg width="24" height="22" fill="none" xmlns="http://www.w3.org/2000/svg"><path d="m17.323 21.0207-.0419-.0269c-.5652-.3634-.9472-.8535-1.1148-1.4492-.1606-.5706-.0989-1.1466.0403-1.6599.1404-.5176.384-1.0519.663-1.5697-.1006.0911-.1983.1795-.2925.2643l-.0096.0086-.274.24c-1.2546 1.1-2.6045 2.2836-3.8858 2.989-.6965.3835-1.4538.6737-2.2311.6955-.8159.0229-1.5858-.2529-2.2464-.8746-.6476-.6078-.9447-1.3594-.9447-2.1782 0-.7749.2646-1.5651.633-2.3248.6986-1.441 1.935-3.0885 3.2137-4.7923l.1705-.2272c.1723-.2439.3699-.5186.583-.8148.659-.9161 1.466-2.038 2.1277-3.0884.3051-.4843.5638-.9296.756-1.3127-.2556.1341-.5401.3027-.851.5052-.9383.6108-2.0474 1.4835-3.2267 2.5084-2.3555 2.047-4.917 4.6361-6.8306 6.7749l-.0171.0191-.0181.0181c-.804.8039-2.0048.7958-2.7997.1996l-.0525-.0394-.0464-.0464c-.804-.8039-.7958-2.0047-.1996-2.7997l.0304-.0405.0347-.037c.0694-.074.1505-.1609.2425-.2595 1.0308-1.1044 3.4305-3.6756 6.088-6.0555 1.4463-1.2951 2.9915-2.5544 4.4528-3.4952 1.4196-.914 2.917-1.6334 4.2283-1.6334.6593 0 1.1834.1492 1.6112.3845.4006.2203.6777.4977.8473.6674l.0149.015.0089.0088.0085.009c1.4546 1.5355 1.0136 3.5394.1623 5.3155-.8061 1.6818-2.1658 3.5609-3.5192 5.4311v.0001l-.3201.4426-.0039.0055-.1002.1365-.0001.0001c-.253.3449-.5275.7192-.8064 1.105.1172-.1072.2302-.2105.3379-.3084l.0016-.0015c1.1775-1.0654 2.3774-2.1492 3.5098-2.8685 1.1023-.7 2.4179-1.2352 3.7111-.7179.7645.3058 1.4804.9514 1.6879 1.8695.3003.9554.1123 1.9154-.2153 2.7733-.1451.38-.3273.7642-.5286 1.1467.4639-.0069.9676.1407 1.3678.5149.4339.351.6638.8693.7109 1.3639.0499.5242-.0963 1.1252-.5507 1.5795l-1.0055.7059a12.1787 12.1787 0 0 1-.2868.2143c-.6905.4995-1.7788 1.1709-3.0019 1.1709-.6146 0-1.2103-.1548-1.7783-.4388l-.0445-.0223Z" fill="currentColor"/></svg>
